img/gatehub_logo.svg

<svg width="153" height="45" viewBox="0 0 153 45" fill="none" xmlns="http://www.w3.org/2000/svg">
<path d="M65.9031 16.3234C67.3673 16.3083 68.799 16.726 69.9933 17.5165C70.1061 17.6447 70.1726 17.8028 70.1835 17.9683V18.0062C70.1835 18.3634 69.9299 18.5882 69.428 18.6733C69.3502 18.6733 68.8617 18.4778 67.9702 18.0819C67.4328 17.8793 66.8595 17.7724 66.28 17.7665H65.6749C64.2782 17.7665 62.9407 18.3958 61.6624 19.6543C60.835 20.707 60.4218 21.7921 60.4218 22.9016V23.0412C60.4218 24.8533 61.321 26.3332 63.1193 27.4809C64.0579 27.9745 64.9966 28.2211 65.9352 28.2205H66.0848C67.0104 28.2205 67.9355 27.9855 68.8601 27.5156V24.3321H66.149C65.6816 24.2532 65.4442 24.0348 65.4442 23.6618V23.6366C65.5287 23.1903 65.7594 22.9663 66.149 22.9663H69.6468C70.0187 22.9663 70.246 23.1871 70.3229 23.6334V27.5211C70.3229 28.0904 70.1742 28.4445 69.8759 28.5801C68.5981 29.2793 67.3586 29.6284 66.1574 29.6273H65.9369C63.5886 29.6273 61.6232 28.6111 60.0406 26.5787C59.2919 25.4316 58.9181 24.2312 58.9192 22.9773C58.9192 20.7478 59.9832 18.9041 62.1111 17.4463C63.4148 16.6977 64.6788 16.3234 65.9031 16.3234Z" fill="#3B3F4D"/>
<path d="M79.3318 16.3238C79.7631 16.3238 80.0795 16.7561 80.2884 17.6183C83.1198 24.9591 84.5495 28.7165 84.5777 28.8905V28.9928C84.5777 29.3394 84.3537 29.552 83.9129 29.6273H83.8746C83.4623 29.6273 83.1681 29.2307 82.9922 28.4375L81.4091 24.3351H77.2888L75.3614 29.4116C75.1733 29.5544 75.0067 29.625 74.8624 29.625H74.7891C74.3451 29.5456 74.1243 29.3228 74.1243 28.9634V28.9254L75.3199 25.7026C77.41 20.2829 78.5459 17.274 78.7276 16.676C78.9413 16.438 79.1397 16.323 79.3287 16.323L79.3318 16.3238ZM79.3318 18.9763L77.8516 22.9653H80.8751V22.9272L79.3701 18.9763H79.3318Z" fill="#3B3F4D"/>
<path d="M88.0572 16.323H97.2139C97.6564 16.4019 97.8819 16.6148 97.8819 16.9539V17.0927C97.8819 17.4341 97.6105 17.6305 97.0687 17.6873H93.3791V28.9965C93.3791 29.3411 93.1411 29.5524 92.6685 29.6273H92.6426C92.2602 29.6273 92.0231 29.3908 91.9321 28.9216V17.6912H88.1749C87.6798 17.5997 87.4285 17.3655 87.4285 16.9957C87.5353 16.5493 87.7432 16.3246 88.058 16.3246L88.0572 16.323Z" fill="#3B3F4D"/>
<path d="M103.296 16.3246L103.472 16.363H110.345L110.485 16.3246C110.885 16.3246 111.118 16.5798 111.184 17.0903C111.093 17.5117 110.837 17.7227 110.418 17.7232H103.998V22.447H108.203L108.701 22.4093C109.016 22.4093 109.225 22.6449 109.331 23.1083C109.331 23.4138 109.144 23.647 108.769 23.8072L108.066 23.7695H103.998V28.2664H110.588C110.913 28.2664 111.114 28.5122 111.186 29.0038C111.064 29.4195 110.854 29.6273 110.557 29.6273H103.296C102.854 29.5488 102.634 29.325 102.634 28.963V17.0259C102.7 16.5814 102.921 16.3615 103.296 16.3615V16.323V16.3246Z" fill="#3B3F4D"/>
<path d="M116.548 16.3238H116.689C117.117 16.4091 117.332 16.5963 117.332 16.8767V22.4235H124.054V16.9825C124.134 16.5418 124.344 16.3238 124.696 16.3238H124.799C125.227 16.4028 125.441 16.6144 125.441 16.9556V29.0318C125.441 29.3359 125.212 29.5349 124.759 29.6273H124.723C124.276 29.5484 124.051 29.3233 124.051 28.9592V23.7535H117.328V28.9923C117.328 29.3406 117.103 29.5523 116.656 29.6242H116.62C116.254 29.6242 116.025 29.3872 115.938 28.9173V17.0923C115.996 16.5789 116.196 16.323 116.543 16.323L116.548 16.3238Z" fill="#3B3F4D"/>
<path d="M131.751 16.3238H131.893C132.323 16.4091 132.537 16.5963 132.537 16.8767V24.3595C132.537 25.9688 133.003 27.0457 133.935 27.5902C134.492 28.0269 135.185 28.2628 135.898 28.2584C137.289 28.2584 138.336 27.5565 139.038 26.1526C139.183 25.7083 139.256 25.2441 139.254 24.7773V16.9826C139.335 16.5418 139.545 16.3238 139.898 16.3238H140.002C140.431 16.4028 140.646 16.6145 140.646 16.9557V25.132C140.646 26.5264 139.965 27.7429 138.602 28.7814C137.746 29.3454 136.877 29.6273 135.994 29.6273H135.752C134.271 29.6273 132.983 28.9125 131.888 27.4828C131.391 26.7155 131.143 25.7676 131.143 24.6391V17.0924C131.201 16.5789 131.401 16.323 131.75 16.323L131.751 16.3238Z" fill="#3B3F4D"/>
<path d="M146.058 16.3254L146.223 16.3444H148.319L148.456 16.3254C149.502 16.3254 150.395 16.8264 151.136 17.8286C151.499 18.3632 151.694 18.9981 151.693 19.6483V19.7535C151.693 20.5526 151.383 21.3108 150.762 22.0281C152.253 22.8652 152.999 24.0783 153 25.6675C153 27.2668 152.184 28.4936 150.553 29.3481C150.104 29.5204 149.629 29.6148 149.149 29.6273H146.055C145.616 29.5482 145.397 29.3227 145.397 28.958V17.0113C145.467 16.5635 145.685 16.342 146.055 16.342V16.323L146.058 16.3254ZM146.746 17.7147V21.6365H148.01C149.134 21.6365 149.856 21.2283 150.176 20.4118C150.265 20.1876 150.311 19.9485 150.313 19.7068V19.6079C150.313 18.7065 149.797 18.0889 148.766 17.755L148.047 17.717L146.746 17.7147ZM146.746 23.0068V28.2602H148.531C149.842 28.2602 150.722 27.8754 151.171 27.1059C151.465 26.6845 151.621 26.1791 151.617 25.662V25.5955C151.617 24.336 150.942 23.4921 149.593 23.0638L148.632 23.01L146.746 23.0068Z" fill="#3B3F4D"/>
<path d="M5.22396 26.7764C4.47848 26.7761 3.74171 26.6453 3.0631 26.3928C2.38449 26.1403 1.77974 25.772 1.28945 25.3125C0.799161 24.8531 0.434672 24.3131 0.22045 23.7289C0.00622796 23.1447 -0.0527709 22.5297 0.0474137 21.9253C0.147598 21.3209 0.404648 20.741 0.801309 20.2246C1.19797 19.7082 1.72507 19.2672 2.34721 18.9311C2.96936 18.5951 3.67217 18.3718 4.40846 18.2764C5.14475 18.1809 5.89748 18.2154 6.61614 18.3775C7.83563 18.6526 8.89178 19.2803 9.58869 20.1441C10.2856 21.0079 10.576 22.0491 10.406 23.0747C10.236 24.1003 9.61713 25.0407 8.66421 25.7214C7.71129 26.4021 6.48897 26.777 5.22396 26.7764ZM5.22396 19.4063C4.26639 19.4066 3.34472 19.7045 2.64546 20.2397C1.9462 20.775 1.52158 21.5076 1.45753 22.2893C1.39349 23.071 1.6948 23.8434 2.30049 24.4503C2.90618 25.0571 3.77102 25.453 4.71997 25.5578C5.66892 25.6627 6.63113 25.4687 7.41185 25.015C8.19258 24.5614 8.73352 23.882 8.92519 23.1144C9.11687 22.3468 8.94498 21.5483 8.44429 20.8804C7.94361 20.2126 7.15154 19.7253 6.22836 19.5172C5.90222 19.4438 5.56554 19.4065 5.22729 19.4063H5.22396Z" fill="#3B3F4D"/>
<path d="M30.5273 31.5279L25.4199 22.9658H15.2051V22.0342H25.4199L30.5273 13.472L31.3604 13.9375L26.253 22.5004L31.3604 31.0625L30.5273 31.5279Z" fill="#9D9FA7"/>
<path d="M35.6474 44.8323C34.9011 44.8334 34.1632 44.6893 33.4833 44.4097C32.8033 44.1301 32.1971 43.7215 31.7054 43.2114C31.2137 42.7013 30.8479 42.1014 30.6325 41.4522C30.4171 40.8029 30.3571 40.1193 30.4566 39.4472C30.5561 38.7751 30.8128 38.1302 31.2094 37.5557C31.606 36.9813 32.1333 36.4906 32.7559 36.1167C33.3786 35.7428 34.082 35.4944 34.8191 35.388C35.5562 35.2817 36.3098 35.3199 37.0293 35.5002C38.2473 35.8067 39.3019 36.5036 39.9982 37.4621C40.6944 38.4205 40.9851 39.5756 40.8166 40.7137C40.6481 41.8519 40.0317 42.896 39.0814 43.6532C38.1311 44.4103 36.9113 44.8292 35.6474 44.8323ZM35.6399 36.643C34.6805 36.6439 33.7572 36.9759 33.057 37.5719C32.3568 38.1679 31.9319 38.9834 31.8684 39.8533C31.8049 40.7231 32.1075 41.5824 32.715 42.2572C33.3224 42.9321 34.1893 43.372 35.1403 43.4879C36.0912 43.6039 37.0551 43.3873 37.8369 42.8819C38.6186 42.3765 39.1599 41.6201 39.3511 40.7658C39.5423 39.9115 39.3691 39.0231 38.8666 38.2804C38.3642 37.5377 37.5699 36.9963 36.6447 36.7656C36.3173 36.684 35.9794 36.6428 35.6399 36.643Z" fill="#3B3F4D"/>
<path d="M35.6308 9.67083C34.8856 9.67008 34.1492 9.52447 33.471 9.24376C32.7927 8.96305 32.1883 8.55374 31.6984 8.04327C31.2084 7.5328 30.8442 6.93299 30.6302 6.28406C30.4161 5.63514 30.3572 4.9521 30.4573 4.28077C30.5575 3.60944 30.8144 2.96534 31.2108 2.39167C31.6072 1.81801 32.134 1.32804 32.7558 0.954629C33.3776 0.581222 34.08 0.333013 34.816 0.22665C35.552 0.120287 36.3045 0.15823 37.023 0.337934C38.2432 0.643107 39.3002 1.34039 39.9977 2.30034C40.6953 3.2603 40.986 4.41773 40.8159 5.55778C40.6458 6.69784 40.0266 7.74308 39.073 8.49949C38.1194 9.2559 36.8964 9.6721 35.6308 9.67083ZM35.6308 1.481C34.7152 1.48036 33.8304 1.78179 33.1407 2.32933C32.451 2.87688 32.0033 3.63333 31.8807 4.45825C31.7581 5.28317 31.9689 6.12051 32.4741 6.81481C32.9792 7.50911 33.7443 8.0132 34.6273 8.23348C35.594 8.47556 36.627 8.35879 37.4991 7.90884C38.3712 7.45888 39.0111 6.71255 39.2781 5.83388C39.5433 4.95504 39.4143 4.01648 38.9195 3.22393C38.4247 2.43138 37.6045 1.8495 36.6386 1.60582C36.3115 1.52306 35.9737 1.48082 35.6342 1.48024L35.6308 1.481Z" fill="#3B3F4D"/>
</svg>

<svg width="153" height="45" viewBox="0 0 153 45" fill="none" xmlns="http://www.w3.org/2000/svg"><path d="M65.903 16.323a7.287 7.287 0 014.09 1.194.76.76 0 01.19.451v.038c0 .357-.253.582-.755.667-.078 0-.566-.195-1.458-.591a4.938 4.938 0 00-1.69-.316h-.605c-1.397 0-2.734.63-4.013 1.888-.827 1.053-1.24 2.138-1.24 3.248v.14c0 1.811.899 3.291 2.697 4.439.939.493 1.878.74 2.816.74h.15c.925 0 1.85-.236 2.775-.705v-3.184h-2.71c-.467-.079-.705-.297-.705-.67v-.025c.085-.447.315-.67.705-.67h3.498c.372 0 .599.22.676.666v3.888c0 .57-.149.924-.447 1.06-1.278.698-2.517 1.047-3.719 1.046h-.22c-2.348 0-4.314-1.016-5.896-3.048-.75-1.147-1.123-2.348-1.122-3.602 0-2.23 1.064-4.073 3.192-5.53 1.304-.75 2.568-1.124 3.792-1.124zm13.429.001c.431 0 .748.432.956 1.294 2.832 7.341 4.261 11.099 4.29 11.273v.102c0 .346-.224.559-.665.634h-.038c-.413 0-.707-.396-.883-1.19l-1.583-4.102h-4.12l-1.928 5.077c-.188.142-.354.213-.499.213h-.073c-.444-.08-.665-.302-.665-.662v-.038l1.196-3.222c2.09-5.42 3.226-8.429 3.408-9.027.213-.238.412-.353.6-.353h.004zm0 2.652l-1.48 3.99h3.023v-.039l-1.505-3.95h-.038zm8.725-2.653h9.157c.442.079.668.292.668.63v.14c0 .341-.272.538-.813.594h-3.69v11.31c0 .344-.238.555-.71.63h-.026c-.383 0-.62-.236-.71-.705v-11.23h-3.758c-.495-.092-.746-.326-.746-.696.106-.447.314-.671.629-.671v-.002zm15.239.002l.176.038h6.873l.14-.038c.4 0 .633.255.699.765-.091.422-.347.633-.766.633h-6.42v4.724h4.205l.498-.038c.315 0 .524.236.63.7 0 .305-.187.538-.562.698l-.703-.037h-4.068v4.496h6.59c.325 0 .526.246.598.738-.122.415-.332.623-.629.623h-7.261c-.442-.078-.662-.302-.662-.664V17.026c.066-.445.287-.665.662-.665v-.038.002zm13.252-.001h.141c.428.085.643.272.643.553v5.547h6.722v-5.441c.08-.441.29-.66.642-.66h.103c.428.08.642.291.642.633v12.076c0 .304-.229.503-.682.595h-.036c-.447-.079-.672-.304-.672-.668v-5.206h-6.723v5.24c0 .348-.225.56-.672.631h-.036c-.366 0-.595-.237-.682-.707V17.092c.058-.513.258-.769.605-.769h.005zm15.203 0h.142c.43.085.644.272.644.553v7.483c0 1.609.466 2.686 1.398 3.23.557.437 1.25.673 1.963.668 1.391 0 2.438-.701 3.14-2.105.145-.445.218-.909.216-1.376v-7.794c.081-.441.291-.66.644-.66h.104c.429.08.644.291.644.633v8.176c0 1.394-.681 2.61-2.044 3.65-.856.563-1.725.845-2.608.845h-.242c-1.481 0-2.769-.714-3.864-2.144-.497-.768-.745-1.715-.745-2.844v-7.547c.058-.513.258-.769.607-.769h.001zm14.307.001l.165.02h2.096l.137-.02c1.046 0 1.939.501 2.68 1.504.363.534.558 1.17.557 1.82v.104c0 .8-.31 1.558-.931 2.275 1.491.837 2.237 2.05 2.238 3.64 0 1.599-.816 2.826-2.447 3.68a4.227 4.227 0 01-1.404.28h-3.094c-.439-.08-.658-.305-.658-.67V17.011c.07-.447.288-.669.658-.669v-.019l.003.002zm.688 1.39v3.922h1.264c1.124 0 1.846-.409 2.166-1.225.089-.224.135-.463.137-.705v-.1c0-.9-.516-1.518-1.547-1.852l-.719-.038-1.301-.002zm0 5.292v5.253h1.785c1.311 0 2.191-.385 2.64-1.154.294-.422.45-.927.446-1.444v-.066c0-1.26-.675-2.104-2.024-2.532l-.961-.054-1.886-.003zM5.224 26.776a6.223 6.223 0 01-2.16-.383 5.282 5.282 0 01-1.775-1.08c-.49-.46-.854-1-1.069-1.584a3.534 3.534 0 01-.173-1.804 3.82 3.82 0 01.754-1.7 4.837 4.837 0 011.546-1.294 5.957 5.957 0 012.061-.655 6.355 6.355 0 012.208.102c1.22.275 2.276.902 2.973 1.766.697.864.987 1.905.817 2.93-.17 1.026-.789 1.967-1.742 2.647-.953.681-2.175 1.056-3.44 1.055zm0-7.37c-.958 0-1.88.299-2.579.834-.699.535-1.123 1.268-1.187 2.05-.065.781.237 1.553.842 2.16.606.607 1.471 1.003 2.42 1.108.949.105 1.911-.09 2.692-.543.78-.454 1.322-1.133 1.513-1.9.192-.768.02-1.567-.48-2.235-.501-.667-1.293-1.155-2.217-1.363a4.578 4.578 0 00-1-.11h-.004z" fill="#3B3F4D"/><path d="M30.527 31.528l-5.107-8.562H15.205v-.932H25.42l5.107-8.562.833.466-5.107 8.562 5.107 8.563-.833.465z" fill="#9D9FA7"/><path d="M35.647 44.832a5.677 5.677 0 01-2.164-.422 5.225 5.225 0 01-1.778-1.199 4.648 4.648 0 01-1.072-1.759 4.337 4.337 0 01-.176-2.005c.1-.672.356-1.317.752-1.891a5.002 5.002 0 011.547-1.44 5.551 5.551 0 012.063-.728 5.74 5.74 0 012.21.112c1.218.307 2.273 1.004 2.97 1.962a4.42 4.42 0 01.818 3.252c-.169 1.138-.785 2.182-1.736 2.94-.95.756-2.17 1.175-3.434 1.178zm-.007-8.189c-.96 0-1.883.333-2.583.929-.7.596-1.125 1.411-1.189 2.281-.063.87.24 1.73.847 2.404.607.675 1.474 1.115 2.425 1.23.951.117 1.915-.1 2.697-.605s1.323-1.262 1.514-2.116a3.175 3.175 0 00-.484-2.486c-.503-.742-1.297-1.284-2.222-1.514a4.147 4.147 0 00-1.005-.123zM35.63 9.67a5.671 5.671 0 01-2.159-.426 5.218 5.218 0 01-1.773-1.2 4.645 4.645 0 01-1.068-1.76 4.338 4.338 0 01-.173-2.003 4.48 4.48 0 01.754-1.89A5 5 0 0132.756.956a5.545 5.545 0 012.06-.728 5.734 5.734 0 012.207.11C38.243.644 39.3 1.34 39.998 2.3c.697.96.988 2.118.818 3.258-.17 1.14-.79 2.185-1.743 2.941-.954.757-2.177 1.173-3.442 1.172zm0-8.189c-.915 0-1.8.3-2.49.848-.689.548-1.137 1.304-1.26 2.13a3.192 3.192 0 00.594 2.356c.505.694 1.27 1.198 2.153 1.418.967.243 2 .126 2.872-.324.872-.45 1.512-1.196 1.78-2.075a3.169 3.169 0 00-.36-2.61c-.494-.793-1.314-1.375-2.28-1.618a4.126 4.126 0 00-1.005-.126l-.003.001z" fill="#3B3F4D"/></svg>
